X: 965
T: Tennessee Wagoner
B: jims roots
M:2/4
L:1/16
Q: 1/4=100
K:C
V:1 
"C"G,2[C2E] [C3E]E | GGAB cdcA | "G"G,2[B,2D] [B,3D]D | GABc dBAG |
"C"G,2[C2E] [C3E]E | GGAB cdcA | "G"GABc dBag | "C"e[e2c][ec] [e4c] :|
|:"C"e2e2 [ec][eB][ec]d | eg2a g2dc | "G"BG2G DG2A | Bcde d2gf |
"C"e2e2 [ec][eB][ec]d | eg2a gz | "G"[G,3D3B3g3][Bg] [B2a][B2g] | "C"e[c2e][ce] [ce] ||
"C"gf | e[c2e][ce] [c2e]ag | e[c2e][ce] [c2e]G2 | "G"AGcG AGcG | Ad2e d2gf |
"C"e[c2e][ce] [c2e]ag | e[c2e][ce] [c2e]G2 | "G"ABAG EFDB, | "C"(C4 C4) :|]
% abcbook-tune_id 6298c297a3ae392a0af5c839


% abcbook-boost 0
% abcbook-tablature 
% abcbook-transpose 
% abcbook-lastupdated 1654178456042
% abcbook-soundfonts 
% abcbook-repeats 1


